suite-common/icons/assets/icons/currencyEth.svg

<svg xmlns="http://www.w3.org/2000/svg" viewBox="0 0 22.76 28.42">
  <path fill-rule="evenodd" d="M15.685.068C15.415.168.39 9.756.239 9.924a1.04 1.04 0 0 0-.239.647c0 .118.821 2.571 2.922 8.727 1.607 4.709 2.945 8.597 2.973 8.639.105.158.276.3.473.391a.7.7 0 0 0 .438.075c.129-.01.293-.049.365-.086.221-.115 15.066-9.583 15.235-9.717a1 1 0 0 0 .346-.695c.014-.195-.181-.783-2.887-8.706A4912 4912 0 0 0 16.92.588c-.059-.152-.289-.387-.473-.482a1.02 1.02 0 0 0-.762-.038m-1.615 3.45c-.022.058-1.099 3.126-2.393 6.819s-2.364 6.727-2.379 6.742c-.014.015-1.525-1.408-3.358-3.163l-3.331-3.191.128-.08L8.474 6.99c3.086-1.967 5.616-3.576 5.623-3.576s-.006.047-.027.104m4.141 7.02c1.853 5.424 2.177 6.403 2.125 6.424-.067.028-9.111.838-9.131.818-.007-.007 1.066-3.088 2.383-6.847 1.318-3.759 2.405-6.826 2.417-6.814.011.011 1.004 2.9 2.206 6.419M6.074 16.812l2.495 2.389-.208.594c-1.324 3.78-1.588 4.518-1.61 4.493-.015-.016-.791-2.274-1.726-5.018l-1.719-5.045c-.032-.089.119.052 2.768 2.587"/>
</svg>

<svg xmlns="http://www.w3.org/2000/svg" viewBox="0 0 22.76 28.42"><path d="M15.685 0.068 C 15.415 0.168,0.390 9.756,0.239 9.924 C 0.096 10.085,-0.000 10.344,-0.000 10.571 C 0.000 10.689,0.821 13.142,2.922 19.298 C 4.529 24.007,5.867 27.895,5.895 27.937 C 6.000 28.095,6.171 28.237,6.368 28.328 C 6.537 28.406,6.611 28.419,6.806 28.403 C 6.935 28.393,7.099 28.354,7.171 28.317 C 7.392 28.202,22.237 18.734,22.406 18.600 C 22.601 18.444,22.733 18.180,22.752 17.905 C 22.766 17.710,22.571 17.122,19.865 9.199 C 18.269 4.525,16.944 0.651,16.920 0.588 C 16.861 0.436,16.631 0.201,16.447 0.106 C 16.235 -0.003,15.920 -0.019,15.685 0.068 M14.070 3.518 C 14.048 3.576,12.971 6.644,11.677 10.337 C 10.383 14.030,9.313 17.064,9.298 17.079 C 9.284 17.094,7.773 15.671,5.940 13.916 L 2.609 10.725 2.737 10.645 C 2.807 10.601,5.389 8.956,8.474 6.990 C 11.560 5.023,14.090 3.414,14.097 3.414 C 14.104 3.414,14.091 3.461,14.070 3.518 M18.211 10.538 C 20.064 15.962,20.388 16.941,20.336 16.962 C 20.269 16.990,11.225 17.800,11.205 17.780 C 11.198 17.773,12.271 14.692,13.588 10.933 C 14.906 7.174,15.993 4.107,16.005 4.119 C 16.016 4.130,17.009 7.019,18.211 10.538 M6.074 16.812 L 8.569 19.201 8.361 19.795 C 7.037 23.575,6.773 24.313,6.751 24.288 C 6.736 24.272,5.960 22.014,5.025 19.270 C 4.090 16.527,3.316 14.256,3.306 14.225 C 3.274 14.136,3.425 14.277,6.074 16.812 " stroke="none" fill-rule="evenodd" fill="black"></path></svg>
